Papirus/64x64/apps/com.endlessm.photos.svg

<svg xmlns="http://www.w3.org/2000/svg" width="64" height="64" version="1">
 <path style="opacity:0.2" d="m 4,43.9 v 0 11.322222 C 4,56.761111 5.2488,58 6.8,58 H 57.2 C 58.7512,58 60,56.761111 60,55.222222 V 43.9 v 0 z"/>
 <path style="fill:#3f3f3f" d="m 4,42.9 v 0 11.322222 C 4,55.761111 5.2488,57 6.8,57 H 57.2 C 58.7512,57 60,55.761111 60,54.222222 V 42.9 v 0 z"/>
 <path style="fill:#ffaa3b" d="m 6.8,6.9999998 c -1.5512,0 -2.8,1.2388889 -2.8,2.7777778 V 42.9 H 60 V 9.7777776 C 60,8.2388887 58.7512,6.9999998 57.2,6.9999998 Z"/>
 <path style="fill:#603e3f" d="M 44.5,13 37.5,25 29,21 18,29 12.5,28 8.2,32 4,33.356336 V 43 H 60 V 19.258572 L 57,15.5 l -4,4 z"/>
 <rect style="opacity:0.3" width="40" height="3" x="12" y="48" rx="1.429" ry="1.5"/>
 <circle style="opacity:0.2" cx="39.5" cy="50.5" r="4.5"/>
 <circle style="fill:#ffffff" cx="39.5" cy="49.5" r="4.5"/>
 <path style="opacity:0.2" d="M 4 43 L 4 44 L 60 44 L 60 43 L 4 43 z"/>
 <path style="opacity:0.2" d="M 44.5 13 L 37.5 25 L 29 21 L 18 29 L 12.5 28 L 8.1992188 32 L 4 33.355469 L 4 34.355469 L 8.1992188 33 L 12.5 29 L 18 30 L 29 22 L 37.5 26 L 44.5 14 L 53 20.5 L 57 16.5 L 60 20.257812 L 60 19.257812 L 57 15.5 L 53 19.5 L 44.5 13 z"/>
 <path style="opacity:0.2;fill:#ffffff" d="M 6.8007812 7 C 5.2495813 7 4 8.2384549 4 9.7773438 L 4 10.777344 C 4 9.2384544 5.2495813 8 6.8007812 8 L 57.199219 8 C 58.750419 8 60 9.2384545 60 10.777344 L 60 9.7773438 C 60 8.2384549 58.750419 7 57.199219 7 L 6.8007812 7 z"/>
</svg>

<?xml version="1.0" encoding="UTF-8" standalone="no"?>
<svg
   id="_图层_1"
   version="1.1"
   viewBox="0 0 64 64" width="64" height="64"
   sodipodi:docname="com.endlessm.photos.svg"
   xml:space="preserve"
   inkscape:version="1.4 (e7c3feb100, 2024-10-09)"
   xmlns:inkscape="http://www.inkscape.org/namespaces/inkscape"
   xmlns:sodipodi="http://sodipodi.sourceforge.net/DTD/sodipodi-0.dtd"
   xmlns="http://www.w3.org/2000/svg"
   xmlns:svg="http://www.w3.org/2000/svg"><sodipodi:namedview
     id="namedview26"
     pagecolor="#505050"
     bordercolor="#eeeeee"
     borderopacity="1"
     inkscape:showpageshadow="0"
     inkscape:pageopacity="0"
     inkscape:pagecheckerboard="0"
     inkscape:deskcolor="#505050"
     inkscape:zoom="8.453125"
     inkscape:cx="31.94085"
     inkscape:cy="31.94085"
     inkscape:window-width="1920"
     inkscape:window-height="939"
     inkscape:window-x="0"
     inkscape:window-y="34"
     inkscape:window-maximized="1"
     inkscape:current-layer="_图层_1"
     showguides="true"><sodipodi:guide
       position="14.370841,33.114328"
       orientation="1,0"
       id="guide26"
       inkscape:locked="false" /></sodipodi:namedview><!-- Generator: Adobe Illustrator 29.0.1, SVG Export Plug-In . SVG Version: 2.1.0 Build 192)  --><defs
     id="defs6"><style
       id="style1">
      .st0 {
        fill-opacity: .5;
      }

      .st0, .st1, .st2, .st3, .st4, .st5, .st6, .st7 {
        fill: #fff;
      }

      .st8 {
        fill: #133c9a;
      }

      .st2, .st9 {
        display: none;
      }

      .st3 {
        fill-opacity: .2;
      }

      .st4 {
        fill-opacity: .9;
      }

      .st10 {
        fill: #3370ff;
      }

      .st11 {
        fill: url(#_未命名的渐变_3);
      }

      .st12 {
        fill: url(#_未命名的渐变);
      }

      .st5 {
        fill-opacity: .3;
      }

      .st6 {
        fill-opacity: 0;
      }

      .st7 {
        fill-opacity: .7;
      }

      .st13 {
        fill: #00d6b9;
      }

      .st14 {
        fill: url(#_未命名的渐变_2);
      }
    </style><radialGradient
       id="_未命名的渐变"
       data-name="未命名的渐变"
       cx="123.9"
       cy="-40.2"
       fx="123.9"
       fy="-40.2"
       r="59.4"
       gradientTransform="translate(-26.8 25.5) scale(.6 -.7)"
       gradientUnits="userSpaceOnUse"><stop
         offset="0"
         stop-color="#db202e"
         id="stop1" /><stop
         offset="1"
         stop-color="#e01b24"
         id="stop2" /></radialGradient><radialGradient
       id="_未命名的渐变_2"
       data-name="未命名的渐变 2"
       cx="67.6"
       cy="26.8"
       fx="67.6"
       fy="26.8"
       r="105.2"
       gradientTransform="translate(-26.6 25.3) scale(.6 -.7)"
       gradientUnits="userSpaceOnUse"><stop
         offset="0"
         stop-color="#ffb648"
         id="stop3" /><stop
         offset="1"
         stop-color="#ff7800"
         stop-opacity="0"
         id="stop4" /></radialGradient><radialGradient
       id="_未命名的渐变_3"
       data-name="未命名的渐变 3"
       cx="61.7"
       cy="18.6"
       fx="61.7"
       fy="18.6"
       r="68"
       gradientTransform="translate(-26.8 25.8) scale(.6 -.7)"
       gradientUnits="userSpaceOnUse"><stop
         offset="0"
         stop-color="#c64600"
         id="stop5" /><stop
         offset="1"
         stop-color="#a51d2d"
         id="stop6" /></radialGradient></defs><path
     class="st1"
     d="M47.5,64.1H13.8c-7.6,0-13.8-6.3-13.8-13.8V13.7C0,6.2,6.2,0,13.7,0h36.6c7.5,0,13.7,6.2,13.7,13.7v36.6c0,7.5-6.2,13.7-13.7,13.7h-2.9.1Z"
     id="path6"
     style="fill:#3f3f3f;fill-opacity:1" /><g
     id="g26"
     transform="matrix(1.1436493,0,0,1.276032,-4.5967784,-8.7020947)"><path
       style="fill:#ffaa3b"
       d="m 15.592427,6.907291 c -5.585372,0 -11.4625494,4.299378 -11.4889867,10.750738 L 4,42.9 H 60 V 18.585117 C 60,10.463901 54.613587,6.907291 47.786931,6.907291 Z"
       id="path3"
       sodipodi:nodetypes="ssccsss" /><path
       style="fill:#603e3f"
       d="M 44.5,13 37.5,25 29,21 18,29 12.5,28 8.2,32 4,33.356336 V 43 H 60 V 19.258572 L 57,15.5 l -4,4 z"
       id="path4" /><rect
       style="opacity:0.3"
       width="40"
       height="3"
       x="12"
       y="48"
       rx="1.429"
       ry="1.5"
       id="rect4" /><circle
       style="opacity:0.2"
       cx="39.5"
       cy="50.5"
       r="4.5"
       id="circle4" /><circle
       style="fill:#ffffff"
       cx="39.5"
       cy="49.5"
       r="4.5"
       id="circle5" /><path
       style="opacity:0.2"
       d="m 4,43 v 1 h 56 v -1 z"
       id="path5" /><path
       style="opacity:0.2"
       d="M 44.5,13 37.5,25 29,21 18,29 12.5,28 8.1992188,32 4,33.355469 v 1 L 8.1992188,33 12.5,29 l 5.5,1 11,-8 8.5,4 7,-12 8.5,6.5 4,-4 3,3.757812 v -1 L 57,15.5 l -4,4 z"
       id="path6-6" /></g></svg>
